archdroid-icon-theme/Archdroid-KellyGreen/mimetypes/scalable/application-vnd.oasis.opendocument.chart.svg

<svg fill="#00C853" height="48" viewBox="0 0 48 48" width="48" xmlns="http://www.w3.org/2000/svg"><path d="m12 4c-2.21 0-3.980469 1.79-3.980469 4l-.019531 32c0 2.21 1.770468 4 3.980469 4h24.019531c2.21 0 4-1.79 4-4v-24l-12-12zm14 3 11 11h-11zm-4 14h4v20h-4zm-8 6h4v14h-4zm16 6h4v8h-4z" fill="#00a500"/></svg>

<svg fill="#00C853" height="48" version="1.1" viewBox="0 0 48 48" width="48" xmlns="http://www.w3.org/2000/svg"><path d="M12 4C9.79 4 8.019531 5.79 8.019531 8L8 40C8 42.21 9.770468 44 11.980469 44L36 44C38.21 44 40 42.21 40 40L40 16 28 4 12 4zM26 7L37 18 26 18 26 7zM22 21L26 21 26 41 22 41 22 21zM14 27L18 27 18 41 14 41 14 27zM30 33L34 33 34 41 30 41 30 33z" fill="#00a500"/></svg>
